X:1
T:Title
%%score { ( 1 3 ) | ( 2 4 ) }
L:1/8
Q:1/4=100
M:4/4
K:G
V:1 treble nm="Grand Piano"
V:3 treble 
V:2 treble 
V:4 treble 
V:1
 B2 B>_B =B2 B>A | G2 E>G D4 | A2 A>B c2 [Fe]2 | [Fd]2 [FA]>[F_B] =B4 | d2 d>c B2 B>A | G2 E>G D4 | %6
w: Geo.~C.~Hugg * * * * *||||||
 [DFA]2 [CFA]>[B,G] [DGB]3 [CFA] | [B,G]6 z2 | [FA]6 z2 | [B,DG]2 [CEG]2 [B,DG]4 | [GB]6 z2 | %11
w: |||||
 z4 [FA]4 | d2 d>c B2 B>A | G2 E>G D4 | [CFA]2 [CFA]>[B,G] [DGB]3 [CFA] | [B,G]6 z2 |] %16
w: |||||
V:2
 [G,DG]2 [G,DG]>[G,^CG] [G,DG]2 [G,DG]>[G,=CG] | [G,B,D]2 [C,G,C]>[E,G,C] [G,B,]4 | %2
 [CDF]2 [CDF]>[B,DG] [A,DF]2[K:bass] [D,C]2 | [D,A,]2 [D,D]>[D,D][K:treble] [G,DG]4 | %4
 [G,B,G]2 [G,B,G]>[G,EG] [G,DG]2 [G,DG]>[G,CG] | [G,B,D]2 [C,G,C]>[E,G,C] [G,B,]4 | %6
 C,2 D,>D, D,3 D, | G,6 z2 | z4 z2 [D,C]2[K:treble] | G,2[K:bass] C,2 G,4 | %10
 z4 z2[K:treble] [G,D]2 | E,2 A,,2 D,4 | [G,B,G]2 [G,B,G]>[G,EG] [G,DG]2 [G,DG]>[G,CG] | %13
 [G,B,D]2 [C,G,C]>[E,G,C] [G,B,]4 | D,2 D,>D, D,3 D, | G,6 z2 |] %16
V:3
 x8 | x8 | x8 | x8 | x8 | x8 | x8 | x8 | D2 D>D DD [GB]>A | x8 | D2 D>D DD [Bd]>B | %11
 [^CGA]2 [CGA]2 D2 =C2 | x8 | x8 | x8 | x8 |] %16
V:4
 x8 | x8 | x6[K:bass] x2 | x4[K:treble] x4 | x8 | x8 | x8 | x8 | D,2 D,>D, D,D, z z/[K:treble] F/ | %9
 x2[K:bass] x6 | G,2 G,>G, G,G,[K:treble] z z/ G/ | x8 | x8 | x8 | x8 | x8 |] %16

